X:86
T:Staten Island Hornpipe. JMT.086
M:4/4
L:1/8
Q:1/2=980
S:J.Moore,Tyneside,1841.(63a)
R:.Hornpipe
O:England
A:Northumbria
N:presumably some sort of joke! or ghastly mistake. However, I have not a
N:ttempted to correct it as it would have been too large an intervention.
Z:vmp.Chris Partington
K:D
AG|FDFGA2A2|defdc2Ac|B2GBA2FA|G2E2E2AG|!
FDFGA2A2|”? sic, see notes”defdc|A2^d2d2|”sic” {e/f/g/e/}fdd2:|!
|:fg|a2fag2eg|f2dfe2A2|=c2c2efge|=c2c2efge|!
a2fag2eg|f2dfe2A2|d2d2efge|f2d2d2:|

